svgs/advanced_download_manager.svg

<svg width="192" height="192" viewBox="0 0 192 192" fill="none" xmlns="http://www.w3.org/2000/svg"><path d="M75.74 35.29h38.52v60.24h27.14L95 154.58 48.61 95.53h27.13V35.29Z" stroke="#000" stroke-width="8" stroke-linecap="round" stroke-linejoin="round"/><path d="M60.45 80.67V41.19H39.72v41.46H20l29.59 39.48m81.94-41.46v-9.16h20.8v45.69H172l-29.61 37.51-13.82-21.72" stroke="#000" stroke-width="8" stroke-linecap="round" stroke-linejoin="round"/></svg>

<svg width="192" height="192" viewBox="0 0 192 192" fill="none" xmlns="http://www.w3.org/2000/svg">
<path d="M75.74 35.29H114.26V95.53H141.4L95 154.58L48.61 95.53H75.74V35.29Z" stroke="black" stroke-width="8" stroke-linecap="round" stroke-linejoin="round"/>
<path d="M60.45 80.67V41.19H39.72V82.65H20L49.59 122.13M131.53 80.67V71.51H152.33V117.2H172L142.39 154.71L128.57 132.99" stroke="black" stroke-width="8" stroke-linecap="round" stroke-linejoin="round"/>
</svg>
